resources/svg/solid/building.svg

<svg xmlns="http://www.w3.org/2000/svg" fill="currentColor" stroke="none" viewBox="0 0 24 24"><path d="M17,2H7C5.896,2,5,2.896,5,4v17c0,0.552,0.447,1,1,1h4h4h4c0.553,0,1-0.448,1-1V4C19,2.896,18.104,2,17,2z M11,16H8v-2h3 V16z M11,12H8v-2h3V12z M11,8H8V6h3V8z M16,16h-3v-2h3V16z M16,12h-3v-2h3V12z M16,8h-3V6h3V8z"/></svg>

<svg xmlns="http://www.w3.org/2000/svg" fill="currentColor" stroke="none" viewBox="0 0 24 24"><path d="M17 2H7a2 2 0 0 0-2 2v17a1 1 0 0 0 1 1h12a1 1 0 0 0 1-1V4a2 2 0 0 0-2-2zm-6 14H8v-2h3v2zm0-4H8v-2h3v2zm0-4H8V6h3v2zm5 8h-3v-2h3v2zm0-4h-3v-2h3v2zm0-4h-3V6h3v2z"/></svg>
